Numix/22/status/state-error.svg

<?xml version="1.0" encoding="UTF-8" standalone="no"?>
<!-- Created with Inkscape (http://www.inkscape.org/) -->

<svg
   xmlns:dc="http://purl.org/dc/elements/1.1/"
   xmlns:cc="http://creativecommons.org/ns#"
   xmlns:rdf="http://www.w3.org/1999/02/22-rdf-syntax-ns#"
   xmlns:svg="http://www.w3.org/2000/svg"
   xmlns="http://www.w3.org/2000/svg"
   xmlns:sodipodi="http://sodipodi.sourceforge.net/DTD/sodipodi-0.dtd"
   xmlns:inkscape="http://www.inkscape.org/namespaces/inkscape"
   id="svg9065"
   version="1.1"
   inkscape:version="0.91 r"
   width="22"
   height="22"
   sodipodi:docname="state-error.svg">
  <metadata
     id="metadata9071">
    <rdf:RDF>
      <cc:Work
         rdf:about="">
        <dc:format>image/svg+xml</dc:format>
        <dc:type
           rdf:resource="http://purl.org/dc/dcmitype/StillImage" />
        <dc:title />
      </cc:Work>
    </rdf:RDF>
  </metadata>
  <defs
     id="defs9069" />
  <sodipodi:namedview
     pagecolor="#ffffff"
     bordercolor="#666666"
     borderopacity="1"
     objecttolerance="10"
     gridtolerance="10"
     guidetolerance="10"
     inkscape:pageopacity="0"
     inkscape:pageshadow="2"
     inkscape:window-width="1366"
     inkscape:window-height="747"
     id="namedview9067"
     showgrid="false"
     inkscape:zoom="14.75"
     inkscape:cx="5.1302859"
     inkscape:cy="12.811"
     inkscape:window-x="0"
     inkscape:window-y="21"
     inkscape:window-maximized="1"
     inkscape:current-layer="svg9065"
     showguides="true"
     inkscape:guide-bbox="true" />
  <g
     transform="matrix(0.06584938,0,0,0.06869972,-11.839726,2.0968247)"
     id="g3003"
     style="fill:#ef555c;fill-opacity:1;stroke:none">
    <path
       style="fill:#ef555c;fill-opacity:1;stroke:none"
       d="M 10.1875,4 C 9.3992091,4 8.7260542,4.395988 8.28125,5 A 1.30013,1.30013 0 0 1 8.3125,5.03125 L 11,7.75 12.75,6 c -0.0526,0.00677 -0.104263,0.02503 -0.15625,0.03125 C 12.365082,4.8654092 11.37257,4 10.1875,4 Z M 5.15625,8.40625 c -0.071,0.1428955 -0.1399783,0.2819178 -0.1875,0.4375 C 4.8764994,8.8327661 4.7825686,8.8125 4.6875,8.8125 3.3330975,8.8125 2.25,9.9619712 2.25,11.375 c 0,1.413029 1.0830975,2.5625 2.4375,2.5625 0.061538,0 0.1270119,0.0048 0.1875,0 A 1.30013,1.30013 0 0 1 5.03125,13.71875 L 7.75,11 5.15625,8.40625 Z m 11.375,0.34375 -2.25,2.25 2.53125,2.53125 0.03125,0 c 0.139209,-0.09585 0.255698,-0.191903 0.375,-0.3125 0.254732,0.368125 0.656558,0.59375 1.125,0.59375 0.77463,0 1.40625,-0.62934 1.40625,-1.4375 0,-0.80816 -0.63162,-1.46875 -1.40625,-1.46875 -0.119612,0 -0.232904,0.0019 -0.34375,0.03125 C 17.900491,9.9715783 17.330548,9.1575707 16.53125,8.75 Z"
       transform="matrix(15.186172,0,0,14.5561,179.80011,-15.961411)"
       id="circle265"
       inkscape:connector-curvature="0" />
  </g>
  <path
     style="fill:#ef555c;fill-opacity:1;stroke:#ef555c;stroke-width:0.30000001;stroke-linejoin:round;stroke-miterlimit:4;stroke-dasharray:none;stroke-opacity:1"
     d="M 16.01301,15.581083 7.3482339,6.9145542 5.9203096,8.3163171 14.586124,17.007969 Z"
     id="rect5629-8-1"
     inkscape:connector-curvature="0"
     sodipodi:nodetypes="ccccc" />
  <path
     style="fill:#ef555c;fill-opacity:1;stroke:#ef555c;stroke-width:0.30000001;stroke-linejoin:round;stroke-miterlimit:4;stroke-dasharray:none;stroke-opacity:1"
     d="M 7.4131899,17.086006 16.079691,8.4212019 14.677928,6.9932776 5.986276,15.659092 Z"
     id="rect5629-8-1-2"
     inkscape:connector-curvature="0"
     sodipodi:nodetypes="ccccc" />
  <g
     id="g3883"
     transform="translate(23.8125,1.5326027)"
     style="fill:#ef555c;fill-opacity:1" />
</svg>

<!-- Created with Inkscape (http://www.inkscape.org/) -->
<svg xmlns="http://www.w3.org/2000/svg" viewBox="0 0 22 22">
 <g transform="matrix(0.06584938,0,0,0.06869972,-11.839726,2.0968247)" style="fill:#ef555c;fill-opacity:1;stroke:none">
  <path d="m 10.188 4 c -0.788 0 -1.461 0.396 -1.906 1 a 1.3 1.3 0 0 1 0.031 0.031 l 2.688 2.719 1.75 -1.75 c -0.053 0.007 -0.104 0.025 -0.156 0.031 c -0.229 -1.166 -1.221 -2.031 -2.406 -2.031 m -5.03 4.406 c -0.071 0.143 -0.14 0.282 -0.188 0.438 c -0.092 -0.011 -0.186 -0.031 -0.281 -0.031 -1.354 0 -2.438 1.149 -2.438 2.563 c 0 1.413 1.083 2.563 2.438 2.563 0.062 0 0.127 0.005 0.188 0 a 1.3 1.3 0 0 1 0.156 -0.219 l 2.719 -2.719 -2.594 -2.594 m 11.375 0.344 -2.25 2.25 2.531 2.531 0.031 0 c 0.139 -0.096 0.256 -0.192 0.375 -0.313 0.255 0.368 0.657 0.594 1.125 0.594 0.775 0 1.406 -0.629 1.406 -1.438 0 -0.808 -0.632 -1.469 -1.406 -1.469 -0.12 0 -0.233 0.002 -0.344 0.031 c -0.1 -0.966 -0.669 -1.78 -1.469 -2.188" transform="matrix(15.186172,0,0,14.5561,179.80011,-15.961411)"/>
 </g>
 <path d="m 16.01 15.581 -8.665 -8.667 -1.428 1.402 8.666 8.692" style="stroke-dasharray:none;stroke-opacity:1;fill:#ef555c;stroke-miterlimit:4;fill-opacity:1;stroke:#ef555c;stroke-linejoin:round;stroke-width:0.3"/>
 <path d="m 7.413 17.09 8.667 -8.665 -1.402 -1.428 -8.692 8.666" style="stroke-dasharray:none;stroke-opacity:1;fill:#ef555c;stroke-miterlimit:4;fill-opacity:1;stroke:#ef555c;stroke-linejoin:round;stroke-width:0.3"/>
</svg>
